X:1
T:Hop and go forwards. JJo3.094
T:Hop and go forwards. JJo3.094
T:Each strain twice
C:Each strain twice
L:1/8
Q:3/8=100
M:6/8
K:Gmin
V:1 treble 
V:1
 G, | D2 D E2 E | D3 G3 | EDC B,A,G, | D3- D2 G | d2 d e2 e | d3 g3 | edc BAG | d3- d2 || %9
"^qus in ms" D/E/ | F2 F G2 G | F3 B3 | B,CD EDC | B,3 d3 | G,A,B, CB,A, | G,3 g3 | GAB cBA | %17
 G3- G2 |] %18

